X: 1
T:Raven's Rock  "rpband"
M:C
L:1/8
Q:80
C:
S:Reel
K:HP
:|2 a|
{cd}c2{g}e3/2A/2{g}A/2{d}A3/2{g}f3/2e/2|
{gcd}c2{g}e3/2c/2{g}B3/2{d}B/2{e}B3/2a/2|  !
{cd}c2{g}e3/2A/2{g}A/2{d}A3/2{g}f3/2e/2|
c/2{d}A3/2{g}B/2{d}G3/2{g}A3/2{d}A/2{e}A:| |:
e|  !
{ag}a2g/2a3/2{cd}c2{g}c/2e3/2|
a3/2f/2{g}e3/2c/2{g}B3/2{d}B/2{e}B3/2e/2|
{ag}a2g/2a3/2{cGdG}c2a3/2f/2|  !
{g}e3/2c/2{g}d3/2B/2{g}A3/2{d}A/2{e}A:|
